X:1
T:Title
%%score { ( 1 3 ) | ( 2 4 ) }
L:1/8
Q:1/4=100
M:4/4
K:G
V:1 treble nm="Grand Piano"
V:3 treble 
V:2 bass 
V:4 bass 
V:1
 [DB]2 [DB]>[DB] [DB]3 [^DA] | [G,EG][G,EG] [G,DF]>[G,CE] [G,B,D]4 | [G,CE]2 [CEG][EGc] B2 d2 | %3
w: George~Stebbins * * * *|||
 cB A>G A4 | [DB]2 [DB]>[DB] [DB]3 [^DA] | [G,EG][G,EG] [G,DF]>[G,CE] [G,B,D]4 | %6
w: |||
 [G,CE]2 [CEG][EGc] B>c d>G | [DGB]3 [CFA] [B,G]4 |[M:6/8] .B6 | [GB]2 [FA] [FA]3 | .c6 | %11
w: |||||
 [DAc]2 [DGB] [DGB]3 | .d6 | e3 d3 | B2 G F2 G | [DFA]6 | .B6 | [DGB]2 [CFA] [B,G]3 | .d6 | %19
w: ||||||||
 [Gd]2 [Dc] [DB]3 | .c6 | [Gd]3 [DGB]3 | [CEA]2 [EG] [DGB]2 [CDA] | [B,DG]6 |] %24
w: |||||
V:2
 [G,,G,]2 [G,,G,]>[G,,G,] [G,,G,]3 [B,,G,] | C,C, C,>C, G,,4 | %2
 C,2 C,C,[K:treble] [G,DG]2 [G,B,G]2 | [A,DF][A,DG][K:bass] [F,D]>[E,A,^C] [D,F,D]4 | %4
 [G,,G,]2 [G,,G,]>[G,,G,] [G,,G,]3 [B,,G,] | C,C, C,>B,, G,,4 | %6
 C,2 C,C,[K:treble] [G,DG]>[G,A,G] [G,B,G]>[K:bass][E,B,] | D,3 D, G,,4 |[M:6/8][K:treble] .G6 | %9
 [D,D]2 [D,D] [D,D]3 | .A6 | G,2 G, G,3 | B3 [G,B,][A,DF][B,DG] | [CG]3 [B,DG]3 | %14
 [G,DG]2[K:bass] [B,D] [A,CD]2 [G,B,] | D,6 | .G6[K:bass] | D,2 E, G,,3 | B3 [G,B,][G,CG][G,B,G] | %19
 [D,B,]2 [D,A,] [G,,G,]3 | .E6 | [G,B,]3 G,3 | C,2 C, D,2 D, | G,,6 |] %24
V:3
 x8 | x8 | x8 | x8 | x8 | x8 | x8 | x8 |[M:6/8] z3 DcB | x6 | z3 D[DBd][DAc] | x6 | z3 GcB | x6 | %14
 x6 | x6 | z3 D[EGc][DGB] | x6 | z3 Ged | x6 | z3 G,[Fd][Ge] | x6 | x6 | x6 |] %24
V:4
 x8 | x8 | x4[K:treble] x4 | x2[K:bass] x6 | x8 | x8 | x4[K:treble] x7/2[K:bass] x/ | x8 | %8
[M:6/8][K:treble] z3 G,[G,EG][G,DG] | x6 | z3 D,D,D, | x6 | x6 | x6 | x2[K:bass] x4 | x6 | %16
 z3 G,[K:bass]G,G, | x6 | x6 | x6 | z3 C,[C,G,][C,G,] | x6 | x6 | x6 |] %24

